public/files/perm/idevices/base/az-quiz-game/export/exequexthits.svg

<svg fill="none" height="24" viewBox="0 0 25 24" width="25" xmlns="http://www.w3.org/2000/svg" xmlns:xlink="http://www.w3.org/1999/xlink"><clipPath id="a"><path d="m.75 0h24v24h-24z"/></clipPath><g clip-path="url(#a)"><path d="m12.75 0c-6.624 0-12 5.376-12 12s5.376 12 12 12 12-5.376 12-12-5.376-12-12-12zm4.836 9.84-5.604 5.592c-.168.18-.396.264-.636.264s-.456-.084-.636-.264l-2.796-2.796c-.348-.348-.348-.924 0-1.272s.924-.348 1.272 0l2.16 2.16 4.968-4.956c.348-.36.924-.36 1.272 0 .348.348.348.912 0 1.272z" fill="#5ee785"/></g></svg>

<svg width="25" height="24" viewBox="0 0 25 24" fill="none" xmlns="http://www.w3.org/2000/svg">
<g clip-path="url(#clip0_290_2741)">
<path d="M12.75 0C6.126 0 0.75 5.376 0.75 12C0.75 18.624 6.126 24 12.75 24C19.374 24 24.75 18.624 24.75 12C24.75 5.376 19.374 0 12.75 0ZM17.586 9.84L11.982 15.432C11.814 15.612 11.586 15.696 11.346 15.696C11.106 15.696 10.89 15.612 10.71 15.432L7.914 12.636C7.566 12.288 7.566 11.712 7.914 11.364C8.262 11.016 8.838 11.016 9.186 11.364L11.346 13.524L16.314 8.568C16.662 8.208 17.238 8.208 17.586 8.568C17.934 8.916 17.934 9.48 17.586 9.84Z" fill="#5EE785"/>
</g>
<defs>
<clipPath id="clip0_290_2741">
<rect width="24" height="24" fill="white" transform="translate(0.75)"/>
</clipPath>
</defs>
</svg>
